.tmp/img/icon-boot.svg

<?xml version="1.0" encoding="UTF-8"?>
<svg width="76px" height="76px" viewBox="0 0 76 76" version="1.1" xmlns="http://www.w3.org/2000/svg" xmlns:xlink="http://www.w3.org/1999/xlink">
    <!-- Generator: Sketch 42 (36781) - http://www.bohemiancoding.com/sketch -->
    <title>lines-and-angles_stomp</title>
    <desc>Created with Sketch.</desc>
    <defs></defs>
    <g id="Welcome" stroke="none" stroke-width="1" fill="none" fill-rule="evenodd">
        <g id="Desktop-HD" transform="translate(-772.000000, -4426.000000)" fill-rule="nonzero" fill="#272729">
            <g id="lines-and-angles_stomp" transform="translate(772.000000, 4426.000000)">
                <g id="DESIGNS">
                    <path d="M41.1666667,0 L34.8333333,38 L15.6021667,41.496 C6.56766667,43.1395 0,51.0086667 0,60.1888333 L0,76 L44.3333333,76 L50.6666667,69.6666667 L50.6666667,76 L76,76 L76,0 L41.1666667,0 Z M41.7113333,69.6666667 L6.33333333,69.6666667 L6.33333333,66.5 L44.878,66.5 L41.7113333,69.6666667 Z M69.6666667,69.6666667 L57,69.6666667 L57,66.5 L69.6666667,66.5 L69.6666667,69.6666667 Z M69.6666667,60.1666667 L6.3365,60.1666667 C6.34916667,54.0518333 10.716,48.8236667 16.7358333,47.728 L35.4033333,44.3333333 L53.8333333,44.3333333 L53.8333333,38 L41.2553333,38 L42.3098333,31.6666667 L53.8333333,31.6666667 L53.8333333,25.3333333 L43.3643333,25.3333333 L44.4188333,19 L53.8333333,19 L53.8333333,12.6666667 L45.4765,12.6666667 L46.531,6.33333333 L69.6666667,6.33333333 L69.6666667,60.1666667 Z" id="Shape"></path>
                </g>
            </g>
        </g>
    </g>
</svg>

<svg width="76" height="76" viewBox="0 0 76 76" xmlns="http://www.w3.org/2000/svg"><path d="M41.167 0l-6.334 38-19.23 3.496C6.567 43.139 0 51.009 0 60.189V76h44.333l6.334-6.333V76H76V0H41.167zm.544 69.667H6.333V66.5h38.545l-3.167 3.167zm27.956 0H57V66.5h12.667v3.167zm0-9.5H6.337a12.661 12.661 0 0 1 10.399-12.439l18.667-3.395h18.43V38H41.255l1.055-6.333h11.523v-6.334H43.364L44.42 19h9.414v-6.333h-8.356l1.054-6.334h23.136v53.834z" fill-rule="nonzero" fill="#272729"/></svg>
